X:1
T:Title
%%score { ( 1 4 ) | ( 2 3 ) }
L:1/8
M:9/8
K:G
V:1 treble nm="Grand Piano"
V:4 treble 
V:2 treble 
V:3 treble 
V:1
 z3 z2[Q:1/4=100] D DGB | d3- d2 d deB | [Fd]3 [Fc]2[K:bass] [F,D] [F,D][K:treble]F[FA] | %3
 [Fc]3- [Fc]2 [Fc] [Ac]d[DFA] |[M:5/8] [Ac]3 B2 |[M:2/4] .D2 GB |[M:9/8] d3- d2 B Bcd | %7
 [Ge]3 [EGc]2 [EGc] ed[EGc] | [DGB]3- [DGB]2 [Gd] cB[CDA] |[M:5/8] [B,DG]-[B,DG]- [B,DG]3 | %10
[M:12/8] z6 [GB] [DB]2 [DB] [GB]2 | z6 [DA] .[A,DA]2 [DA][DFA][FA] | z6 [DA] [DA]2 B c2 | %13
 D,D,A, .B,3[K:treble] A d2 c B2 | B,,B,,_B,, =B,, E,2[K:treble] [GB] [GB]2 [GB] [GB]2 | %15
 z6 .[EB]2 A, BBB | B,,C,B,, .A,,3 A[K:treble] A2 A d2 | %17
[M:21/16][K:bass] D,D,/-D,/E,[K:treble][FA][B,G]-<[B,G]-[B,G][CDA]-<[CDA]-[CDA][DB]/- | %18
 [DB]3- [DB] z/ z3/2 z3/2 z3 |] %19
V:2
 z3 z2 [G,B,] [G,B,]2 [G,D] | [G,B,G]3- [G,B,G]2 [G,B,G] [G,G]-[G,CG][G,B,G] | %2
 [D,B,]3 [D,A,]2 D, z A,[D,D] | [D,D]3- [D,D]2 [D,D] z[K:treble] BD, |[M:5/8] z z2 G2 | %5
[M:2/4] [G,B,] [G,B,]2 [G,D] |[M:9/8] z3 z3 .D3 | z3 z3 .C3 | z3 z3 .A,3 |[M:5/8] G,,-G,,- G,,3 | %10
[M:12/8] z6 G,2 G,- G,3 | G,B,A, .G,3 .F,2 F, .A,2 D | D,D,E, .B,,3 F,F,A,[K:treble] D [A,F]2 | %13
 z6 [CF] [B,G]2 [EG] [DG]2 | z6[K:bass] z G,B, E E2 | E,G,F, .E,3 G, .F,2 [G,E][F,^D][F,D] | %16
 z6 [F,D][K:treble] [DF]2 [CF] [A,F]2 |[M:21/16] z3[K:bass] D,G,,-<G,,-G,,G,,-<G,,-G,,G,,/- | %18
 G,,3- G,, z/ z3/2 z3/2 z3 |] %19
V:3
 x9 | z3 z3 .B,3 | z3 z3 .D,3 | z3 z3 .[D,D]3[K:treble] |[M:5/8] G,-G,- G,3 |[M:2/4] x4 | %6
[M:9/8] [G,B,G]3- [G,B,G]2 [G,DG] [G,G]-[G,CG][G,B,G] | [C,C]3 C,2 C, C,-[C,D]C, | %8
 D,3- D,2 [D,B,] D,-[D,B,]D, |[M:5/8] x5 |[M:12/8] G,,G,,B,, D, G,2 z .B,2 B, D2 | %11
 z3 z D,2- D, D,2 z D,2 | z3 z D,2- D,6[K:treble] | z6 z G,2- G,3 | z6[K:bass] E,6 | %15
 z3 z B,,2- B,,6 | x7[K:treble] x5 |[M:21/16] x3[K:bass] x15/2 | x21/2 |] %19
V:4
 x9 | x9 | x5[K:bass] x2[K:treble] x2 | x9 |[M:5/8] D-D- D3 |[M:2/4] z .D3 |[M:9/8] x9 | %7
 z3 z3 .G3 | z3 z3 .F3 |[M:5/8] x5 |[M:12/8] x12 | x12 | x12 | z3 z[K:treble] A,2- A, z z z3 | %14
 x6[K:treble] x6 | z6 z [^DB]2 z3 | z3 z D,2- D,6[K:treble] |[M:21/16][K:bass] x3[K:treble] x15/2 | %18
 x21/2 |] %19

